X:416
T:B416-  Sellenger's Round, or The Beginning of the World
Q:1/4=120
L:1/4
M:6/4
K:G mixolydian
G3G3/2A/B|(c3c3/2)d/e|e2cB3/2A/B|c6|\
G2GG3/2A/B|c3c3/2d/e|d2cB3/2A/B|(c3c2)d|\
e3e3/2d/c|(d3d2)d|B3/2c/dd3/2c/B|A3d2B|\
c3/2d/cB2G|A3/2B/cB2G|A2G^F3/2E/F|(G3G3/2)A/B|\
c3/2d/cB2G|A3/2B/cB2G|A3/2B/G^F3/2E/F|G6|]
